X:712
T:OFF TO THE HUNT
M:6/8
L:1/8
B:O'NEILL'S 712
N:"collected by J. O'Neill"
Z:Transcribed by A. LEE WORMAN
K:Am
E|ABA ABd|ege dBG|GFG BAG|dBG BAG|
ABA ABd|ede gba|edc Bcd|ecA A2:|
||g|baga ABA|baga A2 f|g2 G GAG|BAB GAB|
cBc dcd|ede gba|edc Bcd|ecA A2:|
